;FLAVOR:Marlin
;TIME:3691
;Filament used: 3.24993m
;Layer height: 0.3
;MINX:71.349
;MINY:71.349
;MINZ:0.3
;MAXX:138.651
;MAXY:138.65
;MAXZ:9.075
;Generated with Cura_SteamEngine 5.0.0
M82 ;absolute extrusion mode
G21                                        ; metric values
G90                                        ; absolute positioning
M82                                        ; set extruder to absolute mode
M107                                       ; start with the fan off
M140 S115           ; Start heating the bed
G4 S60                                     ; wait 1 minute
M104 S255         ; start heating the hot end
M190 S115           ; wait for bed
M109 S255         ; wait for hotend
M300 S1000 P500                            ; BEEP heating done
G28 X0 Y10 Z0                              ; move X/Y to min endstops
M420 S1                                    ; Enable leveling
M420 Z2.0                                  ; Set leveling fading height to 2 mm
G0 Z0.15                                   ; lift nozzle a bit
G92 E0                                     ; zero the extruded length
G1 X50 E25 F500                            ; Extrude 25mm of filament in a 5cm line.
G92 E0                                     ; zero the extruded length again
G1 E-2 F500                                ; Retract a little
G1 X120 F4000                              ; Quickly wipe away from the filament line`
G92 E0
G92 E0
G1 F1800 E-6.5
;LAYER_COUNT:30
;LAYER:0
M106 S76.5
M204 S3000
M205 X10 Y10
G1 F480 Z0.375
G0 F1200 X80.958 Y81.455 Z0.375
G1 F480 Z0.375
G0 F1200 X74.099 Y91.675
M204 S1500
M205 X6 Y6
;TYPE:SKIRT
G1 F480 Z0.3
G1 F1800 E0
G1 F1200 X74.356 Y91.094 E0.03835
G1 X74.805 Y90.142 E0.10189
G1 X75.106 Y89.549 E0.14204
G1 X75.568 Y88.685 E0.20118
G1 X75.889 Y88.121 E0.24036
G1 X76.425 Y87.228 E0.30323
G1 X76.749 Y86.717 E0.33976
G1 X77.366 Y85.794 E0.40678
G1 X77.735 Y85.277 E0.44512
G1 X78.331 Y84.478 E0.5053
G1 X78.751 Y83.946 E0.54621
G1 X79.379 Y83.183 E0.60587
G1 X79.851 Y82.643 E0.64916
G1 X80.533 Y81.897 E0.71018
G1 X80.958 Y81.455 E0.7472
G1 X81.66 Y80.758 E0.80692
G1 X82.151 Y80.296 E0.84761
G1 X82.938 Y79.589 E0.91148
G1 X83.433 Y79.169 E0.95067
G1 X84.2 Y78.546 E1.01032
G1 X84.717 Y78.149 E1.04967
G1 X85.552 Y77.537 E1.11216
G1 X86.108 Y77.154 E1.15292
G1 X87.028 Y76.549 E1.21939
G1 X87.57 Y76.215 E1.25782
G1 X88.381 Y75.737 E1.31465
G1 X89.016 Y75.389 E1.35836
G1 X89.862 Y74.946 E1.41601
G1 X90.5 Y74.635 E1.45886
G1 X91.802 Y74.044 E1.54518
G1 X92.989 Y73.563 E1.62249
G1 X93.562 Y73.352 E1.65935
G1 X94.483 Y73.034 E1.71817
G1 X95.153 Y72.822 E1.76059
G1 X96.182 Y72.524 E1.82526
G1 X96.766 Y72.373 E1.86168
G1 X97.827 Y72.122 E1.9275
G1 X98.361 Y72.011 E1.96042
G1 X99.402 Y71.817 E2.02434
G1 X100.084 Y71.71 E2.06602
G1 X101.069 Y71.578 E2.12601
G1 X101.745 Y71.507 E2.16704
G1 X102.724 Y71.425 E2.22635
G1 X103.453 Y71.385 E2.27042
G1 X104.451 Y71.353 E2.3307
G1 X104.945 Y71.349 E2.36052
G1 X106.118 Y71.367 E2.43134
G1 X106.778 Y71.396 E2.47122
G1 X107.746 Y71.46 E2.52979
G1 X108.428 Y71.524 E2.57114
G1 X109.451 Y71.643 E2.63331
G1 X110.085 Y71.735 E2.67198
G1 X111.08 Y71.902 E2.73289
G1 X111.737 Y72.03 E2.7733
G1 X112.804 Y72.265 E2.83925
G1 X113.35 Y72.401 E2.87322
G1 X114.353 Y72.674 E2.93597
G1 X115.039 Y72.881 E2.97923
G1 X116.022 Y73.204 E3.04169
G1 X116.593 Y73.409 E3.07831
G1 X117.496 Y73.755 E3.13669
G1 X118.127 Y74.016 E3.17791
G1 X119.138 Y74.462 E3.24462
G1 X119.69 Y74.725 E3.28153
G1 X120.584 Y75.174 E3.34192
G1 X121.181 Y75.495 E3.38284
G1 X122.035 Y75.979 E3.4421
G1 X122.639 Y76.343 E3.48467
G1 X123.624 Y76.971 E3.55519
G1 X124.731 Y77.741 E3.63659
G1 X125.439 Y78.269 E3.68991
G1 X126.221 Y78.883 E3.74993
G1 X126.694 Y79.276 E3.78705
G1 X127.439 Y79.922 E3.84658
G1 X127.903 Y80.346 E3.88452
G1 X128.703 Y81.112 E3.95138
G1 X129.134 Y81.549 E3.98843
G1 X129.853 Y82.312 E4.05172
G1 X130.282 Y82.792 E4.09058
G1 X130.948 Y83.573 E4.15255
G1 X131.371 Y84.098 E4.19325
G1 X131.979 Y84.886 E4.25333
G1 X132.357 Y85.404 E4.29204
G1 X132.927 Y86.226 E4.35242
G1 X133.3 Y86.793 E4.39339
G1 X133.899 Y87.758 E4.46196
G1 X134.196 Y88.267 E4.49753
G1 X134.671 Y89.123 E4.55663
G1 X134.989 Y89.735 E4.59827
G1 X135.434 Y90.638 E4.65904
G1 X135.701 Y91.224 E4.69791
G1 X136.118 Y92.189 E4.76137
G1 X136.336 Y92.736 E4.79692
G1 X136.722 Y93.767 E4.86338
G1 X136.915 Y94.332 E4.89942
G1 X137.23 Y95.324 E4.96225
G1 X137.425 Y96.002 E5.00484
G1 X137.678 Y96.965 E5.06494
G1 X137.822 Y97.575 E5.10278
G1 X138.034 Y98.577 E5.16461
G1 X138.152 Y99.23 E5.20466
G1 X138.313 Y100.238 E5.26629
G1 X138.396 Y100.869 E5.30471
G1 X138.511 Y101.925 E5.36883
G1 X138.561 Y102.555 E5.40698
G1 X138.623 Y103.608 E5.47066
G1 X138.643 Y104.267 E5.51046
G1 X138.651 Y105.23 E5.56859
G1 X138.636 Y105.976 E5.61364
G1 X138.566 Y107.394 E5.69934
G1 X138.459 Y108.588 E5.77171
G1 X138.382 Y109.243 E5.81152
G1 X138.232 Y110.298 E5.87585
G1 X138.13 Y110.896 E5.91247
G1 X137.941 Y111.876 E5.97272
G1 X137.785 Y112.583 E6.01643
G1 X137.432 Y113.976 E6.10318
G1 X137.085 Y115.147 E6.1769
G1 X136.874 Y115.789 E6.2177
G1 X136.536 Y116.743 E6.2788
G1 X136.306 Y117.339 E6.31736
G1 X135.919 Y118.282 E6.3789
G1 X135.639 Y118.914 E6.42062
G1 X135.184 Y119.88 E6.48508
G1 X134.896 Y120.448 E6.52353
G1 X134.432 Y121.315 E6.58289
G1 X134.11 Y121.881 E6.6222
G1 X133.578 Y122.768 E6.68464
G1 X133.192 Y123.373 E6.72796
G1 X132.658 Y124.171 E6.78593
G1 X132.291 Y124.687 E6.82415
G1 X131.655 Y125.541 E6.88843
G1 X131.246 Y126.058 E6.92822
G1 X130.579 Y126.866 E6.99147
G1 X130.184 Y127.32 E7.0278
G1 X129.495 Y128.074 E7.08946
G1 X129.008 Y128.578 E7.13177
G1 X128.302 Y129.278 E7.19179
G1 X127.856 Y129.698 E7.22877
G1 X127.049 Y130.422 E7.29422
G1 X126.538 Y130.855 E7.33465
G1 X125.808 Y131.447 E7.39139
G1 X125.261 Y131.867 E7.43302
G1 X124.39 Y132.504 E7.49816
G1 X123.929 Y132.822 E7.53197
G1 X123.056 Y133.397 E7.59507
G1 X122.512 Y133.734 E7.6337
G1 X121.578 Y134.284 E7.69913
G1 X121.066 Y134.568 E7.73448
G1 X120.065 Y135.092 E7.80269
G1 X119.525 Y135.353 E7.83889
G1 X118.546 Y135.805 E7.90399
G1 X118.003 Y136.037 E7.93963
G1 X117.07 Y136.413 E8.00036
G1 X116.429 Y136.65 E8.04161
G1 X115.429 Y136.995 E8.10547
G1 X114.857 Y137.175 E8.14167
G1 X113.896 Y137.454 E8.20208
G1 X113.13 Y137.653 E8.24985
G1 X111.806 Y137.956 E8.33185
G1 X110.552 Y138.19 E8.40885
G1 X109.975 Y138.281 E8.44412
G1 X108.893 Y138.426 E8.51002
G1 X108.255 Y138.493 E8.54874
G1 X107.276 Y138.575 E8.60805
G1 X106.546 Y138.615 E8.65218
G1 X105.549 Y138.647 E8.7124
G1 X104.931 Y138.65 E8.74971
G1 X103.904 Y138.634 E8.81171
G1 X103.227 Y138.604 E8.85262
G1 X102.185 Y138.534 E8.91567
G1 X101.562 Y138.475 E8.95344
G1 X100.568 Y138.359 E9.01385
G1 X99.915 Y138.265 E9.05368
G1 X98.92 Y138.098 E9.11459
G1 X98.263 Y137.97 E9.15499
G1 X97.196 Y137.735 E9.22095
G1 X96.646 Y137.597 E9.25518
G1 X95.652 Y137.327 E9.31736
G1 X94.959 Y137.118 E9.36105
G1 X93.982 Y136.797 E9.42314
G1 X93.41 Y136.592 E9.45982
G1 X92.498 Y136.243 E9.51876
G1 X91.841 Y135.972 E9.56167
G1 X90.917 Y135.564 E9.62264
G1 X90.342 Y135.29 E9.66109
G1 X89.39 Y134.813 E9.72537
G1 X88.821 Y134.507 E9.76437
G1 X87.963 Y134.021 E9.8239
G1 X87.359 Y133.655 E9.86653
G1 X86.175 Y132.893 E9.95153
G1 X85.148 Y132.172 E10.02728
G1 X84.628 Y131.783 E10.06648
G1 X83.81 Y131.143 E10.12918
G1 X83.341 Y130.754 E10.16597
G1 X82.547 Y130.066 E10.22939
G1 X82.057 Y129.617 E10.26951
G1 X81.29 Y128.882 E10.33364
G1 X80.889 Y128.474 E10.36817
G1 X80.131 Y127.672 E10.43479
G1 X79.721 Y127.212 E10.47199
G1 X79.049 Y126.423 E10.53455
G1 X78.622 Y125.892 E10.57568
G1 X77.753 Y124.747 E10.66246
G1 X77.068 Y123.769 E10.73454
G1 X76.714 Y123.229 E10.77352
G1 X76.137 Y122.303 E10.83938
G1 X75.81 Y121.741 E10.87863
G1 X75.333 Y120.883 E10.93789
G1 X75.011 Y120.265 E10.97996
G1 X74.568 Y119.366 E11.04046
G1 X74.298 Y118.775 E11.07968
G1 X73.882 Y117.811 E11.14307
G1 X73.651 Y117.23 E11.18081
G1 X73.277 Y116.229 E11.24532
G1 X73.086 Y115.67 E11.28098
G1 X72.772 Y114.682 E11.34356
G1 X72.595 Y114.07 E11.38202
G1 X72.325 Y113.047 E11.44589
G1 X72.184 Y112.453 E11.48274
G1 X71.965 Y111.416 E11.54673
G1 X71.848 Y110.77 E11.58636
G1 X71.687 Y109.762 E11.64798
G1 X71.604 Y109.131 E11.6864
G1 X71.489 Y108.075 E11.75052
G1 X71.439 Y107.445 E11.78867
G1 X71.377 Y106.392 E11.85235
G1 X71.357 Y105.733 E11.89215
G1 X71.349 Y104.77 E11.95029
G1 X71.362 Y104.058 E11.99327
G1 X71.405 Y103.047 E12.05436
G1 X71.446 Y102.452 E12.09036
G1 X71.541 Y101.411 E12.15347
G1 X71.617 Y100.759 E12.19309
G1 X71.768 Y99.702 E12.25755
G1 X71.869 Y99.108 E12.29392
G1 X72.066 Y98.086 E12.35675
G1 X72.21 Y97.442 E12.39659
G1 X72.454 Y96.444 E12.45861
G1 X72.62 Y95.84 E12.49642
G1 X72.917 Y94.846 E12.55905
G1 X73.125 Y94.212 E12.59933
G1 X73.47 Y93.241 E12.66154
G1 X73.711 Y92.618 E12.70186
G1 X74.099 Y91.675 E12.76342
M204 S3000
M205 X10 Y10
G1 F1800 E6.26342
G1 F480 Z0.375
G0 F1200 X71.789 Y104.778 Z0.375
M204 S1500
M205 X6 Y6
G1 F480 Z0.3
G1 F1800 E12.76342
G1 F1200 X71.802 Y104.076 E12.8058
G1 X71.844 Y103.076 E12.86622
G1 X71.885 Y102.491 E12.90162
G1 X71.978 Y101.461 E12.96406
G1 X72.053 Y100.82 E13.00302
G1 X72.201 Y99.775 E13.06673
G1 X72.301 Y99.19 E13.10256
G1 X72.495 Y98.181 E13.16458
G1 X72.637 Y97.545 E13.20392
G1 X72.878 Y96.56 E13.26514
G1 X73.042 Y95.965 E13.30239
G1 X73.335 Y94.983 E13.36426
G1 X73.54 Y94.358 E13.40396
G1 X73.88 Y93.399 E13.46539
G1 X74.118 Y92.785 E13.50514
G1 X74.502 Y91.852 E13.56605
G1 X74.755 Y91.281 E13.60375
G1 X75.197 Y90.341 E13.66645
G1 X75.495 Y89.756 E13.70609
G1 X75.95 Y88.902 E13.7645
G1 X76.267 Y88.346 E13.80314
G1 X76.797 Y87.463 E13.8653
G1 X77.115 Y86.961 E13.90118
G1 X77.724 Y86.049 E13.96738
G1 X78.089 Y85.539 E14.00524
G1 X78.677 Y84.75 E14.06464
G1 X79.091 Y84.225 E14.105
G1 X79.711 Y83.472 E14.16388
G1 X80.176 Y82.939 E14.20658
G1 X80.85 Y82.201 E14.26692
G1 X81.269 Y81.767 E14.30333
G1 X81.963 Y81.078 E14.36237
G1 X82.446 Y80.622 E14.40247
G1 X83.223 Y79.924 E14.46552
G1 X83.712 Y79.51 E14.5042
G1 X84.468 Y78.894 E14.56307
G1 X84.978 Y78.503 E14.60186
G1 X85.803 Y77.899 E14.66359
G1 X86.351 Y77.521 E14.70377
G1 X87.26 Y76.923 E14.76946
G1 X87.795 Y76.593 E14.8074
G1 X88.594 Y76.122 E14.86339
G1 X89.221 Y75.778 E14.90657
G1 X90.056 Y75.341 E14.96346
G1 X90.683 Y75.035 E15.00558
G1 X91.969 Y74.452 E15.09081
G1 X93.142 Y73.976 E15.16723
G1 X93.707 Y73.768 E15.20358
G1 X94.617 Y73.453 E15.26171
G1 X95.277 Y73.245 E15.30348
G1 X96.293 Y72.95 E15.36735
G1 X96.868 Y72.801 E15.40321
G1 X97.918 Y72.553 E15.46834
G1 X98.443 Y72.444 E15.5007
G1 X99.471 Y72.252 E15.56384
G1 X100.143 Y72.146 E15.6049
G1 X101.116 Y72.015 E15.66417
G1 X101.783 Y71.945 E15.70466
G1 X102.749 Y71.864 E15.76318
G1 X103.468 Y71.825 E15.80664
G1 X104.455 Y71.793 E15.86626
G1 X104.949 Y71.789 E15.89608
G1 X106.099 Y71.806 E15.96551
G1 X106.749 Y71.835 E16.00479
G1 X107.707 Y71.898 E16.06274
G1 X108.378 Y71.961 E16.10343
G1 X109.389 Y72.079 E16.16487
G1 X110.013 Y72.17 E16.20294
G1 X110.997 Y72.334 E16.26316
G1 X111.644 Y72.46 E16.30295
G1 X112.698 Y72.692 E16.3681
G1 X113.235 Y72.826 E16.40151
G1 X114.227 Y73.096 E16.46358
G1 X114.903 Y73.3 E16.5062
G1 X115.875 Y73.618 E16.56794
G1 X116.437 Y73.82 E16.60399
G1 X117.329 Y74.162 E16.66166
G1 X117.95 Y74.419 E16.70223
G1 X118.95 Y74.86 E16.76821
G1 X119.493 Y75.118 E16.8045
G1 X120.377 Y75.563 E16.86425
G1 X120.965 Y75.878 E16.90451
G1 X121.808 Y76.356 E16.96301
G1 X122.402 Y76.714 E17.00488
G1 X123.575 Y77.468 E17.08906
G1 X124.616 Y78.2 E17.16588
G1 X125.168 Y78.615 E17.20757
G1 X125.941 Y79.221 E17.26687
G1 X126.407 Y79.609 E17.30347
G1 X127.143 Y80.248 E17.36231
G1 X127.599 Y80.664 E17.39957
G1 X128.39 Y81.422 E17.46571
G1 X128.814 Y81.852 E17.50216
G1 X129.526 Y82.605 E17.56472
G1 X129.948 Y83.078 E17.60299
G1 X130.606 Y83.85 E17.66422
G1 X131.023 Y84.367 E17.70432
G1 X131.624 Y85.146 E17.76371
G1 X131.996 Y85.655 E17.80177
G1 X132.56 Y86.469 E17.86155
G1 X132.927 Y87.026 E17.90182
G1 X133.519 Y87.979 E17.96955
G1 X133.811 Y88.482 E18.00466
G1 X134.281 Y89.326 E18.06298
G1 X134.595 Y89.93 E18.10407
G1 X135.034 Y90.822 E18.16409
G1 X135.298 Y91.399 E18.20239
G1 X135.71 Y92.352 E18.26507
G1 X135.924 Y92.891 E18.30007
G1 X136.306 Y93.911 E18.36583
G1 X136.496 Y94.466 E18.40124
G1 X136.808 Y95.447 E18.46338
G1 X137 Y96.115 E18.50534
G1 X137.25 Y97.066 E18.5647
G1 X137.391 Y97.668 E18.60202
G1 X137.601 Y98.657 E18.66306
G1 X137.718 Y99.3 E18.70251
G1 X137.877 Y100.296 E18.7634
G1 X137.959 Y100.918 E18.80127
G1 X138.073 Y101.961 E18.86461
G1 X138.122 Y102.581 E18.90215
G1 X138.183 Y103.621 E18.96504
G1 X138.203 Y104.272 E19.00436
G1 X138.211 Y105.222 E19.06171
G1 X138.197 Y105.955 E19.10597
G1 X138.128 Y107.355 E19.19059
G1 X138.022 Y108.538 E19.26229
G1 X137.947 Y109.182 E19.30143
G1 X137.799 Y110.225 E19.36502
G1 X137.698 Y110.813 E19.40103
G1 X137.512 Y111.782 E19.4606
G1 X137.358 Y112.477 E19.50357
G1 X137.01 Y113.852 E19.58919
G1 X136.667 Y115.011 E19.66216
G1 X136.459 Y115.642 E19.70227
G1 X136.125 Y116.586 E19.76271
G1 X135.899 Y117.173 E19.80069
G1 X135.516 Y118.105 E19.86151
G1 X135.241 Y118.727 E19.90257
G1 X134.791 Y119.682 E19.9663
G1 X134.508 Y120.241 E20.00412
G1 X134.049 Y121.098 E20.06281
G1 X133.733 Y121.655 E20.10147
G1 X133.207 Y122.532 E20.1632
G1 X132.826 Y123.129 E20.20595
G1 X132.298 Y123.917 E20.26322
G1 X131.937 Y124.425 E20.30084
G1 X131.31 Y125.269 E20.36431
G1 X130.906 Y125.779 E20.40358
G1 X130.247 Y126.578 E20.46611
G1 X129.858 Y127.024 E20.50183
G1 X129.178 Y127.769 E20.56272
G1 X128.698 Y128.266 E20.60443
G1 X128 Y128.959 E20.66381
G1 X127.562 Y129.371 E20.70011
G1 X126.765 Y130.086 E20.76475
G1 X126.26 Y130.513 E20.80467
G1 X125.539 Y131.099 E20.86076
G1 X125.001 Y131.512 E20.9017
G1 X124.139 Y132.142 E20.96615
G1 X123.686 Y132.455 E20.99939
G1 X122.823 Y133.024 E21.06179
G1 X122.288 Y133.356 E21.0998
G1 X121.364 Y133.9 E21.16453
G1 X120.861 Y134.178 E21.19922
G1 X119.873 Y134.696 E21.26657
G1 X119.34 Y134.954 E21.30231
G1 X118.372 Y135.401 E21.36668
G1 X117.838 Y135.63 E21.40175
G1 X116.917 Y136 E21.46167
G1 X116.285 Y136.235 E21.50238
G1 X115.296 Y136.576 E21.56553
G1 X114.734 Y136.753 E21.6011
G1 X113.785 Y137.029 E21.66076
G1 X113.031 Y137.224 E21.70777
G1 X111.725 Y137.523 E21.78865
G1 X110.483 Y137.756 E21.86494
G1 X109.916 Y137.845 E21.89958
G1 X108.847 Y137.989 E21.9647
G1 X108.217 Y138.055 E22.00294
G1 X107.251 Y138.136 E22.06146
G1 X106.531 Y138.175 E22.10499
G1 X105.545 Y138.207 E22.16454
G1 X104.937 Y138.211 E22.20124
G1 X103.923 Y138.194 E22.26246
G1 X103.255 Y138.165 E22.30283
G1 X102.226 Y138.096 E22.36509
G1 X101.612 Y138.038 E22.40232
G1 X100.63 Y137.923 E22.462
G1 X99.987 Y137.83 E22.50122
G1 X99.003 Y137.666 E22.56144
G1 X98.356 Y137.54 E22.60123
G1 X97.302 Y137.308 E22.66638
G1 X96.761 Y137.173 E22.70004
G1 X95.778 Y136.905 E22.76155
G1 X95.095 Y136.7 E22.8046
G1 X94.13 Y136.383 E22.86591
G1 X93.566 Y136.181 E22.90208
G1 X92.665 Y135.836 E22.96032
G1 X92.018 Y135.569 E23.00257
G1 X91.105 Y135.166 E23.06282
G1 X90.538 Y134.896 E23.10073
G1 X89.598 Y134.425 E23.1642
G1 X89.037 Y134.123 E23.20266
G1 X88.19 Y133.643 E23.26143
G1 X87.596 Y133.284 E23.30333
G1 X86.427 Y132.533 E23.38721
G1 X85.411 Y131.819 E23.46217
G1 X84.898 Y131.436 E23.50082
G1 X84.09 Y130.804 E23.56274
G1 X83.629 Y130.421 E23.59892
G1 X82.844 Y129.741 E23.66162
G1 X82.361 Y129.299 E23.70114
G1 X81.603 Y128.573 E23.7645
G1 X81.208 Y128.171 E23.79853
G1 X80.459 Y127.379 E23.86433
G1 X80.055 Y126.925 E23.90102
G1 X79.391 Y126.147 E23.96276
G1 X78.972 Y125.624 E24.00322
G1 X78.113 Y124.494 E24.0889
G1 X77.436 Y123.527 E24.16016
G1 X77.087 Y122.995 E24.19857
G1 X76.517 Y122.081 E24.2636
G1 X76.194 Y121.526 E24.30236
G1 X75.723 Y120.679 E24.36087
G1 X75.405 Y120.07 E24.40234
G1 X74.968 Y119.182 E24.46209
G1 X74.702 Y118.599 E24.50077
G1 X74.29 Y117.648 E24.56334
G1 X74.063 Y117.076 E24.60049
G1 X73.693 Y116.086 E24.66429
G1 X73.505 Y115.536 E24.69938
G1 X73.194 Y114.56 E24.76121
G1 X73.02 Y113.957 E24.7991
G1 X72.753 Y112.945 E24.86228
G1 X72.615 Y112.361 E24.89851
G1 X72.398 Y111.336 E24.96175
